resources/svg/table.svg

<svg viewBox="0 0 24 24"><path fill="none" stroke="currentColor" stroke-width="2" d="M8 5v18m8-18v18M1 11h22M1 5h22M1 17h22M1 1h22v22H1V1z"/></svg>

<svg xmlns="http://www.w3.org/2000/svg" viewBox="0 0 24 24" fill="currentColor"><path fill="none" stroke="currentColor" stroke-width="2" d="M8,5 L8,23 M16,5 L16,23 M1,11 L23,11 M1,5 L23,5 M1,17 L23,17 M1,1 L23,1 L23,23 L1,23 L1,1 Z"/></svg>
